symbols/web/masks/materialsymbolsrounded/masks_wght700_48px.svg

<svg xmlns="http://www.w3.org/2000/svg" height="48" width="48"><path d="M24 38.05q-2.15 0-4.1-.6-1.95-.6-3.7-1.7-2.5-.2-5.175-1.125t-4.9-3Q3.9 29.55 2.45 26.2 1 22.85 1 17.8v-2.1q0-2.4 1.7-4.075Q4.4 9.95 6.8 9.95q2.05 0 3.6 1.425Q11.95 12.8 12.35 15q1.45-.45 2.675-.925Q16.25 13.6 17.1 13.1q1.7-.9 3.25-1.475 1.55-.575 3.65-.575 2.05 0 3.625.6 1.575.6 3.275 1.5.85.45 2.075.925 1.225.475 2.675.925.4-2.25 1.95-3.65 1.55-1.4 3.65-1.4 2.35 0 4.05 1.675Q47 13.3 47 15.7v2.1q0 5.05-1.45 8.4-1.45 3.35-3.675 5.425-2.225 2.075-4.9 3-2.675.925-5.175 1.125-1.75 1.1-3.7 1.7-1.95.6-4.1.6ZM11.1 29.7q-.9-1.25-1.575-3-.675-1.75-.675-3.8v-7.2q0-.85-.6-1.45t-1.45-.6q-.85 0-1.45.6t-.6 1.45v2.1q0 5.95 2.3 8.7 2.3 2.75 4.05 3.2ZM24 34.35q4.55 0 8-3.475t3.45-7.975v-4.05q-1.95-.45-3.6-1.1-1.65-.65-2.7-1.3-1.55-.9-2.725-1.3T24 14.75q-1.25 0-2.425.4-1.175.4-2.725 1.3-1.05.65-2.675 1.325-1.625.675-3.625 1.075v4.05q0 4.5 3.45 7.975 3.45 3.475 8 3.475Zm12.9-4.65q1.75-.45 4.075-3.2t2.325-8.7v-2.1q0-.85-.6-1.45t-1.45-.6q-.85 0-1.45.6t-.6 1.45v7.2q0 2.05-.625 3.775T36.9 29.7Zm-18.2-7.55q.75-.3 1.325-.625T21.1 20.9q.8-.45 1.425-.75t1.475-.3q.85 0 1.5.3t1.4.75q.55.35 1.1.65.55.3 1.25.55.55.25 1-.025.45-.275.45-.975 0-.2-.175-.5t-.425-.4q-.6-.25-1.1-.5-.5-.25-1-.55-.85-.5-1.775-.95-.925-.45-2.225-.45t-2.25.45q-.95.45-1.85.95-.5.3-.95.55-.45.25-1 .5-.3.1-.45.35-.15.25-.15.55 0 .6.4.925.4.325.95.125Zm5.3 2.4Z"/></svg>

<svg xmlns="http://www.w3.org/2000/svg" height="48" width="48"><path d="M24 38.05Q21.85 38.05 19.9 37.45Q17.95 36.85 16.2 35.75Q13.7 35.55 11.025 34.625Q8.35 33.7 6.125 31.625Q3.9 29.55 2.45 26.2Q1 22.85 1 17.8V15.7Q1 13.3 2.7 11.625Q4.4 9.95 6.8 9.95Q8.85 9.95 10.4 11.375Q11.95 12.8 12.35 15Q13.8 14.55 15.025 14.075Q16.25 13.6 17.1 13.1Q18.8 12.2 20.35 11.625Q21.9 11.05 24 11.05Q26.05 11.05 27.625 11.65Q29.2 12.25 30.9 13.15Q31.75 13.6 32.975 14.075Q34.2 14.55 35.65 15Q36.05 12.75 37.6 11.35Q39.15 9.95 41.25 9.95Q43.6 9.95 45.3 11.625Q47 13.3 47 15.7V17.8Q47 22.85 45.55 26.2Q44.1 29.55 41.875 31.625Q39.65 33.7 36.975 34.625Q34.3 35.55 31.8 35.75Q30.05 36.85 28.1 37.45Q26.15 38.05 24 38.05ZM11.1 29.7Q10.2 28.45 9.525 26.7Q8.85 24.95 8.85 22.9V15.7Q8.85 14.85 8.25 14.25Q7.65 13.65 6.8 13.65Q5.95 13.65 5.35 14.25Q4.75 14.85 4.75 15.7V17.8Q4.75 23.75 7.05 26.5Q9.35 29.25 11.1 29.7ZM24 34.35Q28.55 34.35 32 30.875Q35.45 27.4 35.45 22.9V18.85Q33.5 18.4 31.85 17.75Q30.2 17.1 29.15 16.45Q27.6 15.55 26.425 15.15Q25.25 14.75 24 14.75Q22.75 14.75 21.575 15.15Q20.4 15.55 18.85 16.45Q17.8 17.1 16.175 17.775Q14.55 18.45 12.55 18.85V22.9Q12.55 27.4 16 30.875Q19.45 34.35 24 34.35ZM36.9 29.7Q38.65 29.25 40.975 26.5Q43.3 23.75 43.3 17.8V15.7Q43.3 14.85 42.7 14.25Q42.1 13.65 41.25 13.65Q40.4 13.65 39.8 14.25Q39.2 14.85 39.2 15.7V22.9Q39.2 24.95 38.575 26.675Q37.95 28.4 36.9 29.7ZM18.7 22.15Q19.45 21.85 20.025 21.525Q20.6 21.2 21.1 20.9Q21.9 20.45 22.525 20.15Q23.15 19.85 24 19.85Q24.85 19.85 25.5 20.15Q26.15 20.45 26.9 20.9Q27.45 21.25 28 21.55Q28.55 21.85 29.25 22.1Q29.8 22.35 30.25 22.075Q30.7 21.8 30.7 21.1Q30.7 20.9 30.525 20.6Q30.35 20.3 30.1 20.2Q29.5 19.95 29 19.7Q28.5 19.45 28 19.15Q27.15 18.65 26.225 18.2Q25.3 17.75 24 17.75Q22.7 17.75 21.75 18.2Q20.8 18.65 19.9 19.15Q19.4 19.45 18.95 19.7Q18.5 19.95 17.95 20.2Q17.65 20.3 17.5 20.55Q17.35 20.8 17.35 21.1Q17.35 21.7 17.75 22.025Q18.15 22.35 18.7 22.15ZM24 24.55Q24 24.55 24 24.55Q24 24.55 24 24.55Q24 24.55 24 24.55Q24 24.55 24 24.55Q24 24.55 24 24.55Q24 24.55 24 24.55Q24 24.55 24 24.55Q24 24.55 24 24.55Q24 24.55 24 24.55Q24 24.55 24 24.55Q24 24.55 24 24.55Q24 24.55 24 24.55Z"/></svg>
